assets/efishery/pipa.svg

<svg width="24" height="25" viewBox="0 0 24 25" fill="none" xmlns="http://www.w3.org/2000/svg">
<path fill-rule="evenodd" clip-rule="evenodd" d="M1 5.27344C1 4.72119 1.44775 4.27344 2 4.27344H8C8.55225 4.27344 9 4.72119 9 5.27344C9 5.7395 8.68103 6.13135 8.24939 6.24219L8.25 6.27344V9.02344H9C9.41418 9.02344 9.75 9.35913 9.75 9.77344V15.2734C9.75 15.6555 9.46265 15.9766 9.08276 16.0188C6.729 16.2803 5.01416 15.9055 3.86902 15.0657C2.70422 14.2117 2.25 12.9658 2.25 11.7734V6.27344H2C1.44775 6.27344 1 5.82568 1 5.27344ZM8.25 10.5234H7.5C7.08582 10.5234 6.75 10.1877 6.75 9.77344V7.02344H3.75V11.7734C3.75 12.5811 4.04578 13.3352 4.75598 13.8562C5.40674 14.3333 6.49915 14.6833 8.25 14.5845V10.5234Z" fill="#1D1D1D"/>
<path fill-rule="evenodd" clip-rule="evenodd" d="M10.25 8.27344C10.25 7.85913 10.5858 7.52344 11 7.52344H13C13.4142 7.52344 13.75 7.85913 13.75 8.27344V16.2734C13.75 16.6877 13.4142 17.0234 13 17.0234H11C10.5858 17.0234 10.25 16.6877 10.25 16.2734V8.27344ZM11.75 9.02344V15.5234H12.25V9.02344H11.75Z" fill="#1D1D1D"/>
<path fill-rule="evenodd" clip-rule="evenodd" d="M15 9.52344C14.5858 9.52344 14.25 9.85913 14.25 10.2734V15.2734C14.25 15.6877 14.5858 16.0234 15 16.0234H16.25V18.2734H16C15.4478 18.2734 15 18.7212 15 19.2734C15 19.8257 15.4478 20.2734 16 20.2734H22C22.5522 20.2734 23 19.8257 23 19.2734C23 18.7212 22.5522 18.2734 22 18.2734H21.75V13.7734C21.75 12.1289 21.048 11.0288 20.1257 10.3647C19.2417 9.72827 18.2034 9.52344 17.5 9.52344H15ZM15.75 14.5234V11.0234H17.5C17.9633 11.0234 18.6749 11.1687 19.2493 11.582C19.7853 11.968 20.25 12.6179 20.25 13.7734V17.5234H17.75V15.2734C17.75 14.8591 17.4142 14.5234 17 14.5234H15.75Z" fill="#1D1D1D"/>
</svg>

<svg viewBox="0 0 24 25" xmlns="http://www.w3.org/2000/svg">
  <path fill-rule="evenodd" clip-rule="evenodd" d="M1 5.273a1 1 0 0 1 1-1h6a1 1 0 0 1 .25 1.97v2.78H9a.75.75 0 0 1 .75.75v5.5a.75.75 0 0 1-.667.746c-2.354.261-4.069-.113-5.214-.953-1.165-.854-1.619-2.1-1.619-3.293v-5.5H2a1 1 0 0 1-1-1zm7.25 5.25H7.5a.75.75 0 0 1-.75-.75v-2.75h-3v4.75c0 .808.296 1.562 1.006 2.083.65.477 1.743.827 3.494.729v-4.062zM10.25 8.273a.75.75 0 0 1 .75-.75h2a.75.75 0 0 1 .75.75v8a.75.75 0 0 1-.75.75h-2a.75.75 0 0 1-.75-.75v-8zm1.5.75v6.5h.5v-6.5h-.5zM15 9.523a.75.75 0 0 0-.75.75v5c0 .415.336.75.75.75h1.25v2.25H16a1 1 0 0 0 0 2h6a1 1 0 0 0 0-2h-.25v-4.5c0-1.644-.702-2.744-1.624-3.408-.884-.637-1.923-.842-2.626-.842H15zm.75 5v-3.5h1.75c.463 0 1.175.146 1.75.559.535.386 1 1.036 1 2.191v3.75h-2.5v-2.25a.75.75 0 0 0-.75-.75h-1.25z"/>
</svg>
